X: 181
T: Aşkınla Sürünsem
C: Selahaddin Pınar
O: Turkey
F: http://compmusic.upf.edu/node/140
N: huzzam--sarki--curcuna--askinla_surunsem--selahaddin_pinar
N: makam= huzzam
N: form= sarki
N: usul= curcuna = 10/8
M: 10/8
L: 1/16
K: C _1/4B _3/4e ^3/4f 
Q: 1/4=180
%%MIDI tuningsystem comma53
a4 g2f4z4d2 e2f2  | g4 f2e4z4c2 d2e2  | \
w:  ARANAĞME  |   | 
f4 e2d4d2 c2B2 A2G2  | 
w:   | 
A2B2 c2d2 e2f2 a2g4z2  | a4 g2f4z4d2 e2f2  | \
w:   |   | 
g4 f2e4z4c2 d2e2  | 
w:   | 
f4 e2d4d2 c2c4B2  | B16-B4  | z4 f2g4g2 fee2 f2g2  | \
w:   |   |  Aş *  kın  | 
{g}f2e2 d2d2 _b2a2 g2f2 e3d  | 
w:  *  la  *  *  sü *  rün  | 
d18z2  | z4 d2{d}c2 B2{f}g8-g2  | f2g2 a2g2 {a}f2e2 f2g2 {a}f2e2  | \
w:  sem   |  yi *  ne  *  *  aş  |  kın  | 
d2_b2 a2a2 g2g2 f2gf e2ed  | 
w:  la  *  *  de *  lir  | 
d16-d4  | _b2ag f2e2 d2c2 B^AB4z2  | \
w:  sem    |  SAZ  | 
z4 f2g4g2 fee2 f2g2  | 
w:  Aş *  kın  | 
{g}f2e2 d2d2 _b2a2 g2f2 e3d  | d18z2  | \
w:  *  la  *  *  sü *  rün  |  sem   | 
z4 d2{d}c2 B2{f}g8-g2  | f2g2 a2g2 {a}f2e2 f2g2 {a}f2e2  | 
w:  yi *  ne  *  *  aş  |  kın  | 
d2_b2 a2a2 g2g2 f2gf e2ed  | d16-d4  | \
w:  la  *  *  de *  lir  |  sem    | 
_b2ag f2e2 d2e2 f2g4z2  | 
w:  SAZ  | 
_b2ag fga_2/4b c'2c'8_b2  | _b4 a2c'2 baa2 g2{a}g4a2  | \
w:  Bil *  *  *  *  *  *  *  mem   |  ki  *  ne  *  *  yap  | 
g2f^1/4e f16  | 
w:  sam   | 
_bagf g2g4{a}g2 f2f4g2  | g2f2 e2g2 fe_b2 agg2 f2e2  | 
w:  da  *  *  *  *  se *  nin   |  kal *  *  bi *  *  ne  *  *  gir  | 
e16-e4  | d2c'2 c'4 _bag2 fee4d2  | d2c'2 c'4 d'2c'b agf2 e2d2  | 
w:  sem    |  SAZ  |  Bil *  *  *  mem   | 
f6f2 g2g2 fed2 c2B2  | B8-B2fe ede6  | \
w:  ki  ne  *  yap  |  sam   | 
f2e2 d2e2 fggf edcB c4  | 
w:  da  *  *  *  se *  nin   | 
eddc d2d2 cBB2 Bgfe dcB^A  | B8-B2B8z2  | 
w:  kal *  *  *  *  *  bi *  ne  *  *  gir  |  sem    | 
B4 b2^a2 g2f2 ^3/4e2f4ef  | g4 {a}g2f2 ^e2f2 g2^a2 b2c'2  | \
w:  SAZ  |  *  *  Bir  *  *  göl  | 
{c'}b2^a2 g2g2 f2f2 ^e2{g}f4z2  | 
w:  *  ge  *  *  gi *  bi   | 
z4 f2f=e ^de^f2 g2^a2 b2c'2  | c'2b^a g^f=e^d .e2e2 =dcc4B2  | 
w:  ru *  *  *  *  hu *  nun   |  al *  *  *  *  *  *  *  tın  | 
B2c2 ^d2=e2 =f2f2 e2{f}d2 c2B2  | \
w:  da  *  *  be *  lir  | 
c2B^A B6B8z2  | B4 g2f2 ^e2f2 gff4ef  | 
w:  sem    |  SAZ  | 
g4 {a}g2f2 ^e2f2 g2^a2 b2c'2  | {c'}b2^a2 g2g2 b2b8-b2  | \
w:  *  *  Bir  *  *  göl  |  *  ge  *  *  gi *  bi   | 
c'2_2/4b2 agg4g8-g2  | 
w:  ru *  *  *  hu nun   | 
g2fg =f=ed^c d2{e}dc _7/8BAG6  | _b2a2 g2g2 f2g2 fee4d2  | 
w:  al *  *  *  *  *  *  *  *  tın  |  da  *  *  be *  lir  | 
d16-d4  | _b2ag f2e2 d2e2 f2g4z2  | _b2ag fga_2/4b c'2c'8_b2  | 
w:  sem    |  SAZ  |  Bil *  *  *  *  *  *  *  mem   | 
_b4 a2c'2 baa2 g2{a}g4a2  | g2f^1/4e f16  | \
w:  ki  *  ne  *  *  yap  |  sam   | 
_bagf g2g4{a}g2 f2f4g2  | 
w:  da  *  *  *  *  se *  nin   | 
g2f2 e2g2 fe_b2 agg2 f2e2  | e16-e4  | \
w:  kal *  *  bi *  *  ne  *  *  gir  |  sem    | 
d2c'2 c'4 _bag2 fee4d2  | 
w:  SAZ  | 
d2c'2 c'4 d'2c'b agf2 e2d2  | f6f2 g2g2 fed2 c2B2  | \
w:  Bil *  *  *  mem   |  ki  ne  *  yap  | 
B8-B2fe ede6  | 
w:  sam   | 
f2e2 d2e2 fggf edcB c4  | eddc d2d2 cBB2 Bgfe dcB^A  | 
w:  da  *  *  *  se *  nin   |  kal *  *  *  *  *  bi *  ne  *  *  gir  | 
B8-B2B8z2  | |


